images/3246217.svg

<?xml version="1.0" encoding="UTF-8"?>
<svg xmlns="http://www.w3.org/2000/svg" xmlns:xlink="http://www.w3.org/1999/xlink" width="300pt" height="300pt" viewBox="0 0 300 300" version="1.1">
<defs>
<g>
<symbol overflow="visible" id="glyph0-0">
<path style="stroke:none;" d="M 0.546875 1.9375 L 0.546875 -7.75 L 6.046875 -7.75 L 6.046875 1.9375 Z M 1.171875 1.328125 L 5.4375 1.328125 L 5.4375 -7.140625 L 1.171875 -7.140625 Z M 1.171875 1.328125 "/>
</symbol>
<symbol overflow="visible" id="glyph0-1">
<path style="stroke:none;" d="M 4.328125 -7.28125 C 3.546875 -7.28125 2.921875 -6.984375 2.453125 -6.390625 C 1.992188 -5.804688 1.765625 -5.007812 1.765625 -4 C 1.765625 -2.988281 1.992188 -2.1875 2.453125 -1.59375 C 2.921875 -1.007812 3.546875 -0.71875 4.328125 -0.71875 C 5.117188 -0.71875 5.742188 -1.007812 6.203125 -1.59375 C 6.660156 -2.1875 6.890625 -2.988281 6.890625 -4 C 6.890625 -5.007812 6.660156 -5.804688 6.203125 -6.390625 C 5.742188 -6.984375 5.117188 -7.28125 4.328125 -7.28125 Z M 4.328125 -8.171875 C 5.453125 -8.171875 6.351562 -7.789062 7.03125 -7.03125 C 7.707031 -6.28125 8.046875 -5.269531 8.046875 -4 C 8.046875 -2.738281 7.707031 -1.726562 7.03125 -0.96875 C 6.351562 -0.21875 5.453125 0.15625 4.328125 0.15625 C 3.203125 0.15625 2.300781 -0.21875 1.625 -0.96875 C 0.957031 -1.71875 0.625 -2.726562 0.625 -4 C 0.625 -5.269531 0.957031 -6.28125 1.625 -7.03125 C 2.300781 -7.789062 3.203125 -8.171875 4.328125 -8.171875 Z M 4.328125 -8.171875 "/>
</symbol>
<symbol overflow="visible" id="glyph0-2">
<path style="stroke:none;" d="M 1.078125 -8.015625 L 2.171875 -8.015625 L 2.171875 -4.734375 L 6.109375 -4.734375 L 6.109375 -8.015625 L 7.1875 -8.015625 L 7.1875 0 L 6.109375 0 L 6.109375 -3.8125 L 2.171875 -3.8125 L 2.171875 0 L 1.078125 0 Z M 1.078125 -8.015625 "/>
</symbol>
</g>
</defs>
<g id="surface53789">
<rect x="0" y="0" width="300" height="300" style="fill:rgb(100%,100%,100%);fill-opacity:1;stroke:none;"/>
<path style="fill:none;stroke-width:1;stroke-linecap:butt;stroke-linejoin:miter;stroke:rgb(0%,0%,0%);stroke-opacity:1;stroke-miterlimit:10;" d="M 184.570312 184.980469 L 184.570312 184.980469 M 185.648438 187.78125 L 186.542969 187.242188 M 186.730469 190.578125 L 188.515625 189.5 M 187.808594 193.378906 L 190.488281 191.761719 M 188.890625 196.175781 L 192.460938 194.019531 M 189.96875 198.976562 L 194.433594 196.28125 M 191.050781 201.773438 L 196.40625 198.542969 M 192.128906 204.574219 L 198.378906 200.800781 M 193.210938 207.371094 L 200.351562 203.0625 M 194.289062 210.171875 L 202.324219 205.320312 M 194.453125 210.589844 L 202.621094 205.660156 "/>
<path style="fill:none;stroke-width:1.2;stroke-linecap:butt;stroke-linejoin:miter;stroke:rgb(0%,0%,0%);stroke-opacity:1;stroke-miterlimit:10;" d="M 184.570312 184.980469 L 157.539062 185.503906 "/>
<path style="fill:none;stroke-width:1.2;stroke-linecap:butt;stroke-linejoin:miter;stroke:rgb(0%,0%,0%);stroke-opacity:1;stroke-miterlimit:10;" d="M 197.632812 161.3125 L 184.570312 184.980469 "/>
<path style="fill:none;stroke-width:1;stroke-linecap:butt;stroke-linejoin:miter;stroke:rgb(0%,0%,0%);stroke-opacity:1;stroke-miterlimit:10;" d="M 143.574219 162.359375 L 143.574219 162.359375 M 144.652344 165.15625 L 145.546875 164.617188 M 145.734375 167.957031 L 147.519531 166.878906 M 146.8125 170.753906 L 149.492188 169.136719 M 147.894531 173.554688 L 151.464844 171.398438 M 148.972656 176.351562 L 153.4375 173.660156 M 150.054688 179.152344 L 155.410156 175.917969 M 151.132812 181.949219 L 157.382812 178.179688 M 152.214844 184.75 L 159.355469 180.4375 M 153.292969 187.546875 L 161.328125 182.699219 M 153.457031 187.96875 L 161.625 183.039062 "/>
<path style="fill:none;stroke-width:1.2;stroke-linecap:butt;stroke-linejoin:miter;stroke:rgb(0%,0%,0%);stroke-opacity:1;stroke-miterlimit:10;" d="M 143.574219 162.359375 L 116.542969 162.882812 "/>
<path style="fill:none;stroke-width:1.2;stroke-linecap:butt;stroke-linejoin:miter;stroke:rgb(0%,0%,0%);stroke-opacity:1;stroke-miterlimit:10;" d="M 156.632812 138.6875 L 143.574219 162.359375 "/>
<path style=" stroke:none;fill-rule:nonzero;fill:rgb(0%,0%,0%);fill-opacity:1;" d="M 116.542969 162.882812 L 95.242188 180.195312 L 102.453125 186.441406 Z M 116.542969 162.882812 "/>
<path style="fill:none;stroke-width:1.2;stroke-linecap:butt;stroke-linejoin:miter;stroke:rgb(0%,0%,0%);stroke-opacity:1;stroke-miterlimit:10;" d="M 102.578125 139.734375 L 116.542969 162.882812 "/>
<path style="fill:none;stroke-width:1.2;stroke-linecap:butt;stroke-linejoin:miter;stroke:rgb(0%,0%,0%);stroke-opacity:1;stroke-miterlimit:10;" d="M 98.847656 183.320312 L 73.941406 172.804688 "/>
<path style="fill:none;stroke-width:1.2;stroke-linecap:butt;stroke-linejoin:miter;stroke:rgb(0%,0%,0%);stroke-opacity:1;stroke-miterlimit:10;" d="M 73.941406 172.804688 L 76.246094 145.867188 "/>
<path style="fill:none;stroke-width:1.2;stroke-linecap:butt;stroke-linejoin:miter;stroke:rgb(0%,0%,0%);stroke-opacity:1;stroke-miterlimit:10;" d="M 76.246094 145.867188 L 102.578125 139.734375 "/>
<path style=" stroke:none;fill-rule:nonzero;fill:rgb(0%,0%,0%);fill-opacity:1;" d="M 76.246094 145.867188 L 49.125 141.621094 L 49.308594 151.160156 Z M 76.246094 145.867188 "/>
<path style="fill:none;stroke-width:1.2;stroke-linecap:butt;stroke-linejoin:miter;stroke:rgb(0%,0%,0%);stroke-opacity:1;stroke-miterlimit:10;" d="M 76.246094 145.867188 L 72.953125 132.757812 "/>
<path style="fill:none;stroke-width:1.2;stroke-linecap:butt;stroke-linejoin:miter;stroke:rgb(100%,0%,0%);stroke-opacity:1;stroke-miterlimit:10;" d="M 72.953125 132.757812 L 69.65625 119.648438 "/>
<path style="fill:none;stroke-width:1.2;stroke-linecap:butt;stroke-linejoin:miter;stroke:rgb(0%,0%,0%);stroke-opacity:1;stroke-miterlimit:10;" d="M 102.578125 139.734375 L 115.636719 116.066406 "/>
<path style=" stroke:none;fill-rule:nonzero;fill:rgb(0%,0%,0%);fill-opacity:1;" d="M 102.578125 139.734375 L 93.140625 113.957031 L 84.886719 118.742188 Z M 102.578125 139.734375 "/>
<path style="fill:none;stroke-width:1.2;stroke-linecap:butt;stroke-linejoin:miter;stroke:rgb(0%,0%,0%);stroke-opacity:1;stroke-miterlimit:10;" d="M 115.636719 116.066406 L 142.667969 115.542969 "/>
<path style="fill:none;stroke-width:1;stroke-linecap:butt;stroke-linejoin:miter;stroke:rgb(0%,0%,0%);stroke-opacity:1;stroke-miterlimit:10;" d="M 142.667969 115.542969 L 142.667969 115.542969 M 143.746094 118.339844 L 144.640625 117.804688 M 144.828125 121.140625 L 146.613281 120.0625 M 145.90625 123.9375 L 148.585938 122.324219 M 146.988281 126.738281 L 150.558594 124.582031 M 148.066406 129.535156 L 152.53125 126.84375 M 149.148438 132.335938 L 154.503906 129.101562 M 150.226562 135.132812 L 156.476562 131.363281 M 151.308594 137.933594 L 158.449219 133.625 M 152.386719 140.730469 L 160.421875 135.882812 M 152.550781 141.152344 L 160.71875 136.222656 "/>
<path style="fill:none;stroke-width:1;stroke-linecap:butt;stroke-linejoin:miter;stroke:rgb(0%,0%,0%);stroke-opacity:1;stroke-miterlimit:10;" d="M 142.667969 115.542969 L 142.667969 115.542969 M 144.550781 113.207031 L 143.636719 112.703125 M 146.433594 110.875 L 144.609375 109.867188 M 148.316406 108.539062 L 145.578125 107.027344 M 150.203125 106.203125 L 146.550781 104.1875 M 152.085938 103.867188 L 147.519531 101.351562 M 153.96875 101.535156 L 148.492188 98.511719 M 155.851562 99.199219 L 149.460938 95.671875 M 157.738281 96.863281 L 150.433594 92.835938 M 159.621094 94.53125 L 151.402344 89.996094 M 159.90625 94.179688 L 151.550781 89.566406 "/>
<path style="fill:none;stroke-width:1.2;stroke-linecap:butt;stroke-linejoin:miter;stroke:rgb(0%,0%,0%);stroke-opacity:1;stroke-miterlimit:10;" d="M 156.632812 138.6875 L 183.664062 138.164062 "/>
<path style="fill:none;stroke-width:1.2;stroke-linecap:butt;stroke-linejoin:miter;stroke:rgb(0%,0%,0%);stroke-opacity:1;stroke-miterlimit:10;" d="M 183.664062 138.164062 L 197.632812 161.3125 "/>
<path style=" stroke:none;fill-rule:nonzero;fill:rgb(0%,0%,0%);fill-opacity:1;" d="M 183.664062 138.164062 L 173.78125 112.554688 L 165.609375 117.484375 Z M 183.664062 138.164062 "/>
<path style="fill:none;stroke-width:1.2;stroke-linecap:butt;stroke-linejoin:miter;stroke:rgb(0%,0%,0%);stroke-opacity:1;stroke-miterlimit:10;" d="M 196.722656 114.496094 L 183.664062 138.164062 "/>
<path style="fill:none;stroke-width:1.2;stroke-linecap:butt;stroke-linejoin:miter;stroke:rgb(0%,0%,0%);stroke-opacity:1;stroke-miterlimit:10;" d="M 197.632812 161.3125 L 224.660156 160.789062 "/>
<path style="fill:none;stroke-width:1.2;stroke-linecap:butt;stroke-linejoin:miter;stroke:rgb(0%,0%,0%);stroke-opacity:1;stroke-miterlimit:10;" d="M 200.210938 154.898438 L 221.832031 154.480469 "/>
<path style="fill:none;stroke-width:1.2;stroke-linecap:butt;stroke-linejoin:miter;stroke:rgb(0%,0%,0%);stroke-opacity:1;stroke-miterlimit:10;" d="M 224.660156 160.789062 L 237.722656 137.117188 "/>
<path style="fill:none;stroke-width:1.2;stroke-linecap:butt;stroke-linejoin:miter;stroke:rgb(0%,0%,0%);stroke-opacity:1;stroke-miterlimit:10;" d="M 237.78125 140.296875 L 251.296875 140.035156 "/>
<path style="fill:none;stroke-width:1.2;stroke-linecap:butt;stroke-linejoin:miter;stroke:rgb(100%,0%,0%);stroke-opacity:1;stroke-miterlimit:10;" d="M 251.296875 140.035156 L 264.8125 139.773438 "/>
<path style="fill:none;stroke-width:1.2;stroke-linecap:butt;stroke-linejoin:miter;stroke:rgb(0%,0%,0%);stroke-opacity:1;stroke-miterlimit:10;" d="M 237.660156 133.9375 L 251.175781 133.675781 "/>
<path style="fill:none;stroke-width:1.2;stroke-linecap:butt;stroke-linejoin:miter;stroke:rgb(100%,0%,0%);stroke-opacity:1;stroke-miterlimit:10;" d="M 251.175781 133.675781 L 264.6875 133.414062 "/>
<path style="fill:none;stroke-width:1.2;stroke-linecap:butt;stroke-linejoin:miter;stroke:rgb(0%,0%,0%);stroke-opacity:1;stroke-miterlimit:10;" d="M 237.722656 137.117188 L 223.753906 113.972656 "/>
<path style=" stroke:none;fill-rule:nonzero;fill:rgb(100%,100%,100%);fill-opacity:1;" d="M 260.75 130.09375 L 269.75 130.09375 L 269.75 143.09375 L 260.75 143.09375 Z M 260.75 130.09375 "/>
<g style="fill:rgb(100%,0%,0%);fill-opacity:1;">
  <use xlink:href="#glyph0-1" x="260.75" y="139.995117"/>
</g>
<path style="fill:none;stroke-width:1.2;stroke-linecap:butt;stroke-linejoin:miter;stroke:rgb(0%,0%,0%);stroke-opacity:1;stroke-miterlimit:10;" d="M 223.753906 113.972656 L 196.722656 114.496094 "/>
<path style=" stroke:none;fill-rule:nonzero;fill:rgb(100%,100%,100%);fill-opacity:1;" d="M 147.726562 85.375 L 164.726562 85.375 L 164.726562 98.375 L 147.726562 98.375 Z M 147.726562 85.375 "/>
<g style="fill:rgb(100%,0%,0%);fill-opacity:1;">
  <use xlink:href="#glyph0-1" x="147.726562" y="95.276367"/>
  <use xlink:href="#glyph0-2" x="156.126953" y="95.276367"/>
</g>
<path style="fill:none;stroke-width:1.2;stroke-linecap:butt;stroke-linejoin:miter;stroke:rgb(0%,0%,0%);stroke-opacity:1;stroke-miterlimit:10;" d="M 46.433594 144.855469 L 39.902344 156.6875 "/>
<path style="fill:none;stroke-width:1.2;stroke-linecap:butt;stroke-linejoin:miter;stroke:rgb(100%,0%,0%);stroke-opacity:1;stroke-miterlimit:10;" d="M 39.902344 156.6875 L 33.371094 168.523438 "/>
<path style="fill:none;stroke-width:1.2;stroke-linecap:butt;stroke-linejoin:miter;stroke:rgb(0%,0%,0%);stroke-opacity:1;stroke-miterlimit:10;" d="M 52.003906 147.925781 L 45.472656 159.761719 "/>
<path style="fill:none;stroke-width:1.2;stroke-linecap:butt;stroke-linejoin:miter;stroke:rgb(100%,0%,0%);stroke-opacity:1;stroke-miterlimit:10;" d="M 45.472656 159.761719 L 38.941406 171.597656 "/>
<path style="fill:none;stroke-width:1.2;stroke-linecap:butt;stroke-linejoin:miter;stroke:rgb(0%,0%,0%);stroke-opacity:1;stroke-miterlimit:10;" d="M 49.21875 146.390625 L 35.25 123.246094 "/>
<path style=" stroke:none;fill-rule:nonzero;fill:rgb(100%,100%,100%);fill-opacity:1;" d="M 27.15625 163.558594 L 36.15625 163.558594 L 36.15625 176.558594 L 27.15625 176.558594 Z M 27.15625 163.558594 "/>
<g style="fill:rgb(100%,0%,0%);fill-opacity:1;">
  <use xlink:href="#glyph0-1" x="27.15625" y="173.459961"/>
</g>
<path style=" stroke:none;fill-rule:nonzero;fill:rgb(100%,100%,100%);fill-opacity:1;" d="M 61.65625 113.148438 L 78.65625 113.148438 L 78.65625 126.148438 L 61.65625 126.148438 Z M 61.65625 113.148438 "/>
<g style="fill:rgb(100%,0%,0%);fill-opacity:1;">
  <use xlink:href="#glyph0-2" x="61.65625" y="123.049805"/>
  <use xlink:href="#glyph0-1" x="69.680664" y="123.049805"/>
</g>
</g>
</svg>

<svg xmlns="http://www.w3.org/2000/svg" xmlns:xlink="http://www.w3.org/1999/xlink" width="300pt" height="300pt" viewBox="0 0 300 300"><defs><symbol overflow="visible"><path d="M.547 1.938V-7.75h5.5v9.688zm.625-.61h4.266v-8.47H1.171zm0 0"/></symbol><symbol overflow="visible" id="a"><path d="M4.328-7.28c-.78 0-1.406.296-1.875.89-.46.585-.687 1.382-.687 2.39 0 1.012.226 1.813.687 2.406.47.586 1.094.875 1.875.875.79 0 1.414-.288 1.875-.874.457-.593.688-1.394.688-2.406 0-1.008-.23-1.805-.687-2.39-.46-.594-1.086-.89-1.875-.89zm0-.892c1.125 0 2.024.383 2.703 1.14C7.708-6.28 8.048-5.27 8.048-4c0 1.262-.34 2.273-1.016 3.03C6.353-.22 5.454.157 4.33.157S2.3-.22 1.625-.97c-.668-.75-1-1.757-1-3.03 0-1.27.332-2.28 1-3.03.676-.76 1.578-1.142 2.703-1.142zm0 0"/></symbol><symbol overflow="visible" id="b"><path d="M1.078-8.016h1.094v3.282H6.11v-3.282h1.077V0H6.11v-3.813H2.17V0H1.078zm0 0"/></symbol></defs><g><path fill="#fff" d="M0 0h300v300H0z"/><path d="M184.57 184.98m1.078 2.8l.895-.538m.187 3.336l1.786-1.078m-.707 3.88l2.678-1.618m-1.597 4.414l3.57-2.156m-2.49 4.957l4.464-2.696m-3.383 5.493l5.356-3.23m-4.277 6.03l6.25-3.772m-5.17 6.57l7.142-4.308m-6.063 7.11l8.034-4.852m-7.87 5.27l8.167-4.93" stroke="#000" stroke-miterlimit="10" fill="none"/><path d="M184.57 184.98l-27.03.524M197.633 161.313L184.57 184.98" stroke-width="1.2" stroke="#000" stroke-miterlimit="10" fill="none"/><path d="M143.574 162.36m1.078 2.796l.895-.54m.187 3.34l1.786-1.077m-.708 3.874l2.68-1.617m-1.597 4.418l3.57-2.157m-2.492 4.954l4.464-2.692m-3.382 5.492l5.355-3.234m-4.277 6.03l6.25-3.768m-5.168 6.57l7.14-4.313m-6.062 7.11l8.035-4.848m-7.87 5.27l8.167-4.93" stroke="#000" stroke-miterlimit="10" fill="none"/><path d="M143.574 162.36l-27.03.523M156.633 138.688l-13.06 23.67" stroke-width="1.2" stroke="#000" stroke-miterlimit="10" fill="none"/><path d="M116.543 162.883l-21.3 17.312 7.21 6.246zm0 0"/><path d="M102.578 139.734l13.965 23.15M98.848 183.32L73.94 172.805M73.94 172.805l2.306-26.938M76.246 145.867l26.332-6.133" stroke-width="1.2" stroke="#000" stroke-miterlimit="10" fill="none"/><path d="M76.246 145.867l-27.12-4.246.183 9.54zm0 0"/><path d="M76.246 145.867l-3.293-13.11" stroke-width="1.2" stroke="#000" stroke-miterlimit="10" fill="none"/><path d="M72.953 132.758l-3.297-13.11" stroke-width="1.2" stroke="#f00" stroke-miterlimit="10" fill="none"/><path d="M102.578 139.734l13.06-23.668" stroke-width="1.2" stroke="#000" stroke-miterlimit="10" fill="none"/><path d="M102.578 139.734l-9.437-25.777-8.253 4.785zm0 0"/><path d="M115.637 116.066l27.03-.523" stroke-width="1.2" stroke="#000" stroke-miterlimit="10" fill="none"/><path d="M142.668 115.543m1.078 2.797l.895-.535m.188 3.336l1.785-1.078m-.707 3.876l2.68-1.614m-1.598 4.414l3.57-2.156m-2.492 4.953l4.465-2.69m-3.382 5.49l5.356-3.233m-4.277 6.03l6.25-3.77m-5.168 6.572l7.14-4.31m-6.063 7.106l8.035-4.847m-7.87 5.27l8.167-4.93M142.668 115.543m1.883-2.336l-.913-.504m2.797-1.828l-1.825-1.008m3.706-1.328l-2.738-1.513m4.625-.824l-3.652-2.016m5.536-.32l-4.566-2.515m6.45.183l-5.478-3.023m7.36.687l-6.39-3.528m8.276 1.19l-7.304-4.026m9.187 1.695l-8.218-4.534m8.504 4.184l-8.355-4.614" stroke="#000" stroke-miterlimit="10" fill="none"/><path d="M156.633 138.688l27.03-.524M183.664 138.164l13.97 23.15" stroke-width="1.2" stroke="#000" stroke-miterlimit="10" fill="none"/><path d="M183.664 138.164l-9.883-25.61-8.17 4.93zm0 0"/><path d="M196.723 114.496l-13.06 23.668M197.633 161.313l27.027-.524M200.21 154.898l21.622-.418M224.66 160.79l13.063-23.673M237.78 140.297l13.517-.262" stroke-width="1.2" stroke="#000" stroke-miterlimit="10" fill="none"/><path d="M251.297 140.035l13.516-.262" stroke-width="1.2" stroke="#f00" stroke-miterlimit="10" fill="none"/><path d="M237.66 133.938l13.516-.262" stroke-width="1.2" stroke="#000" stroke-miterlimit="10" fill="none"/><path d="M251.176 133.676l13.512-.262" stroke-width="1.2" stroke="#f00" stroke-miterlimit="10" fill="none"/><path d="M237.723 137.117l-13.97-23.144" stroke-width="1.2" stroke="#000" stroke-miterlimit="10" fill="none"/><path d="M260.75 130.094h9v13h-9zm0 0" fill="#fff"/><use xlink:href="#a" x="260.75" y="139.995" fill="#f00"/><path d="M223.754 113.973l-27.03.523" stroke-width="1.2" stroke="#000" stroke-miterlimit="10" fill="none"/><path d="M147.727 85.375h17v13h-17zm0 0" fill="#fff"/><g fill="#f00"><use xlink:href="#a" x="147.727" y="95.276"/><use xlink:href="#b" x="156.127" y="95.276"/></g><path d="M46.434 144.855l-6.532 11.833" stroke-width="1.2" stroke="#000" stroke-miterlimit="10" fill="none"/><path d="M39.902 156.688l-6.53 11.835" stroke-width="1.2" stroke="#f00" stroke-miterlimit="10" fill="none"/><path d="M52.004 147.926l-6.53 11.836" stroke-width="1.2" stroke="#000" stroke-miterlimit="10" fill="none"/><path d="M45.473 159.762l-6.532 11.836" stroke-width="1.2" stroke="#f00" stroke-miterlimit="10" fill="none"/><path d="M49.22 146.39l-13.97-23.144" stroke-width="1.2" stroke="#000" stroke-miterlimit="10" fill="none"/><path d="M27.156 163.56h9v13h-9zm0 0" fill="#fff"/><use xlink:href="#a" x="27.156" y="173.46" fill="#f00"/><path d="M61.656 113.148h17v13h-17zm0 0" fill="#fff"/><g fill="#f00"><use xlink:href="#b" x="61.656" y="123.05"/><use xlink:href="#a" x="69.681" y="123.05"/></g></g></svg>
